public/primaries/List.svg

<svg id="Layer_1" data-name="Layer 1" xmlns="http://www.w3.org/2000/svg" width="64" height="64" viewBox="0 0 64 64"><defs><style>.cls-1{fill-rule:evenodd}</style></defs><title>Icons 100</title><path class="cls-1" d="M48 49H26a2 2 0 0 1 0-4h22a2 2 0 0 1 0 4zm0-10H26a2 2 0 0 1 0-4h22a2 2 0 0 1 0 4zm0-10H26a2 2 0 0 1-2-2 2 2 0 0 1 2-2h22a2 2 0 0 1 2 2 2 2 0 0 1-2 2zm0-10H26a2 2 0 0 1 0-4h22a2 2 0 0 1 0 4zm-34 7a2 2 0 0 1 2-2h2a2 2 0 0 1 2 2v2a2 2 0 0 1-2 2h-2a2 2 0 0 1-2-2v-2zm2 18h2a2 2 0 0 1 2 2v2a2 2 0 0 1-2 2h-2a2 2 0 0 1-2-2v-2a2 2 0 0 1 2-2zm-2-8a2 2 0 0 1 2-2h2a2 2 0 0 1 2 2v2a2 2 0 0 1-2 2h-2a2 2 0 0 1-2-2v-2zm6-18a2 2 0 0 1-2 2h-2a2 2 0 0 1-2-2v-2a2 2 0 0 1 2-2h2a2 2 0 0 1 2 2v2z"/></svg>

<svg id="Layer_1" data-name="Layer 1" xmlns="http://www.w3.org/2000/svg" width="64" height="64" viewBox="0 0 64 64">
  <defs>
    <style>
      .cls-1 {
        fill-rule: evenodd;
      }
    </style>
  </defs>
  <title>Icons 100</title>
  <path class="cls-1" d="M48,49H26a2,2,0,0,1,0-4H48A2,2,0,0,1,48,49Zm0-10H26a2,2,0,0,1,0-4H48A2,2,0,0,1,48,39Zm0-10H26a2,2,0,0,1-2-2h0a2,2,0,0,1,2-2H48a2,2,0,0,1,2,2h0A2,2,0,0,1,48,29Zm0-10H26a2,2,0,0,1,0-4H48A2,2,0,0,1,48,19ZM14,26a2,2,0,0,1,2-2h2a2,2,0,0,1,2,2v2a2,2,0,0,1-2,2H16a2,2,0,0,1-2-2V26Zm2,18h2a2,2,0,0,1,2,2v2a2,2,0,0,1-2,2H16a2,2,0,0,1-2-2V46A2,2,0,0,1,16,44Zm-2-8a2,2,0,0,1,2-2h2a2,2,0,0,1,2,2v2a2,2,0,0,1-2,2H16a2,2,0,0,1-2-2V36Zm6-18a2,2,0,0,1-2,2H16a2,2,0,0,1-2-2V16a2,2,0,0,1,2-2h2a2,2,0,0,1,2,2v2Z"/>
</svg>
